icons/zapier-logo.svg

<?xml version="1.0" encoding="UTF-8"?>
<svg width="512px" height="234px" viewBox="0 0 512 234" version="1.1" xmlns="http://www.w3.org/2000/svg" xmlns:xlink="http://www.w3.org/1999/xlink" preserveAspectRatio="xMidYMid">
    <g>
        <path d="M242.254179,83.8096645 C248.140917,83.8096645 253.606249,84.790356 258.64888,86.7485023 C263.683743,88.7066486 268.000081,91.7399953 271.601128,95.8491896 C275.198938,99.9648571 278.012843,105.186796 280.044137,111.51436 C282.071547,117.852281 283.085251,125.31913 283.085251,133.936268 C283.085251,151.167309 278.406415,164.64777 269.05133,174.370533 C259.689772,184.09718 246.441699,188.960503 229.29481,188.960503 C226.416173,188.960503 223.473452,188.764365 220.462114,188.372089 C217.44754,187.979812 214.833657,187.455482 212.609462,186.806219 L212.609462,232.820392 C211.039061,233.077378 209.370914,233.273516 207.604375,233.40557 C205.837836,233.533739 204.230537,233.601708 202.792837,233.601708 C201.3519,233.601708 199.751723,233.533739 197.985183,233.40557 C196.218644,233.273516 194.614583,233.077378 193.176882,232.820392 L193.176882,86.1568508 C194.482529,85.8998643 195.825073,85.7037261 197.198688,85.5716725 C198.574893,85.4428557 199.978932,85.3755343 201.419869,85.3755343 C202.725516,85.3755343 204.10172,85.4428557 205.542657,85.5716725 C206.980357,85.7037261 208.357209,85.8998643 209.666093,86.1568508 C209.79491,86.4235471 209.961271,87.2352878 210.154173,88.6082558 C210.350958,89.9779873 210.547744,91.4461115 210.74453,93.0119812 C210.941315,94.577851 211.137453,96.0828725 211.334239,97.5166887 C211.531025,98.9537416 211.626181,99.8671116 211.626181,100.259388 C212.935064,98.1691884 214.504818,96.1469573 216.339326,94.188811 C218.16995,92.2306647 220.366958,90.46542 222.916755,88.9027869 C225.467201,87.3336806 228.345838,86.0960026 231.55655,85.1826326 C234.757553,84.2692625 238.324292,83.8096645 242.254179,83.8096645 Z M131.924771,83.8096645 C145.00972,83.8096645 154.95775,86.7828103 161.763037,92.7180975 C168.568324,98.6598578 171.972585,108.156706 171.972585,121.207346 L171.972585,184.063519 C167.392141,185.108943 161.831006,186.184143 155.287237,187.293652 C148.739584,188.399276 142.063114,188.957267 135.261064,188.957267 C128.846112,188.957267 123.057767,188.372089 117.886966,187.195259 C112.716165,186.018429 108.331859,184.131488 104.734696,181.513722 C101.133648,178.909549 98.3534042,175.575198 96.3900793,171.530088 C94.4267544,167.485626 93.4467103,162.591879 93.4467103,156.842373 C93.4467103,151.235277 94.589232,146.304632 96.881396,142.060148 C99.1703234,137.822784 102.279407,134.295531 106.206056,131.4881 C110.132706,128.684552 114.649066,126.591116 119.751898,125.224621 C124.858614,123.851653 130.222964,123.165493 135.851421,123.165493 C140.038941,123.165493 143.473627,123.267122 146.155478,123.459376 C148.837977,123.659399 151.095833,123.885961 152.93034,124.146184 L152.93034,120.42603 C152.93034,112.722261 150.967016,107.371505 147.041013,104.368583 C143.114363,101.368897 137.421174,99.8671116 129.961446,99.8671116 C125.377118,99.8671116 121.095089,100.228964 117.103707,100.942959 C113.109736,101.66278 109.21351,102.606575 105.422798,103.780168 C102.933848,99.4715985 101.692934,94.3208645 101.692934,88.3111354 C106.138088,86.8773192 111.044782,85.7678108 116.415605,84.9832577 C121.779955,84.1987045 126.947519,83.8096645 131.924771,83.8096645 Z M81.8654886,86.1555562 L82.8455327,88.705354 L29.4484686,171.139754 L79.5092398,171.139754 C79.8989271,173.754284 80.0989493,176.425778 80.0989493,179.165241 C80.0989493,181.783007 79.8989271,184.258363 79.5092398,186.612022 L0.983313112,186.612022 L0,183.869323 L53.0072668,101.627825 L6.28304745,101.627825 C5.88967042,99.2774021 5.69301427,96.6699927 5.69301427,93.7952398 C5.69301427,91.0557769 5.88967042,88.5059791 6.28304745,86.1555562 L81.8654886,86.1555562 Z M137.814746,138.242248 C129.697339,138.242248 123.512186,139.746622 119.263818,142.746956 C115.005092,145.753115 112.882526,150.321907 112.882526,156.453333 C112.882526,160.369625 113.597816,163.440517 115.042637,165.655649 C116.480337,167.877903 118.280537,169.571942 120.440647,170.748772 C122.600111,171.922365 124.987431,172.639597 127.605197,172.903056 C130.222964,173.167163 132.711266,173.295333 135.064926,173.295333 C138.075616,173.295333 141.184699,173.133503 144.388939,172.802074 C147.597062,172.477119 150.441391,171.990334 152.93034,171.337187 L152.93034,171.337187 L152.93034,139.419078 C150.967016,139.158208 148.48195,138.901221 145.470612,138.637761 C142.459922,138.377538 139.906887,138.242248 137.814746,138.242248 Z M237.934605,100.648428 C234.662397,100.648428 231.519006,101.236843 228.511552,102.413673 C225.497625,103.583382 222.81901,105.34539 220.462114,107.695813 C218.105865,110.046236 216.210509,113.019382 214.772809,116.607483 C213.327988,120.202704 212.609462,124.470492 212.609462,129.434797 L212.609462,129.434797 L212.609462,170.160357 C215.091291,171.076963 217.647562,171.729463 220.265328,172.118503 C222.883095,172.507543 226.28412,172.706918 230.474877,172.706918 C235.188022,172.706918 239.504359,171.956026 243.431008,170.454241 C247.357658,168.959576 250.727612,166.636341 253.538927,163.501365 C256.352832,160.369625 258.577027,156.422909 260.21475,151.654094 C261.849236,146.8924 262.670039,141.248407 262.670039,134.720821 C262.670039,124.27759 260.737138,115.988644 256.878457,109.850098 C253.016539,103.718672 246.699333,100.648428 237.934605,100.648428 Z M394.988297,83.8077226 C401.9224,83.8077226 408.008513,84.9845523 413.244046,87.3349752 C418.478932,89.6853981 422.863238,92.9148831 426.399553,97.027314 C429.929395,101.139745 432.611893,106.033492 434.445754,111.711793 C436.277025,117.390094 437.196221,123.55518 437.196221,130.214172 C437.196221,132.044149 437.128253,133.967987 436.995552,135.990865 C436.866735,138.01957 436.734681,139.74468 436.605865,141.178497 L436.605865,141.178497 L368.089516,141.178497 C368.353623,152.146058 371.198599,160.174782 376.630918,165.264667 C382.062589,170.354553 390.078366,172.904351 400.680838,172.904351 C409.975075,172.904351 418.804534,171.270513 427.182811,168.007367 C428.230824,169.965513 429.078815,172.34636 429.736493,175.153144 C430.390935,177.963813 430.780622,180.7337 430.912676,183.476399 C426.593102,185.305729 421.846296,186.672223 416.681969,187.58883 C411.507931,188.498316 405.784318,188.958561 399.504656,188.958561 C390.339237,188.958561 382.486584,187.686576 375.946052,185.140014 C369.401636,182.593453 364.000388,179.005352 359.748136,174.371828 C355.496531,169.738951 352.386801,164.253552 350.423476,157.922104 C348.460798,151.591304 347.477517,144.641665 347.477517,137.066066 C347.477517,129.628994 348.42649,122.679354 350.32573,116.213264 C352.221086,109.753647 355.136621,104.143315 359.060034,99.3745003 C362.986684,94.6128063 367.927038,90.8285672 373.881098,88.017899 C379.835157,85.2111147 386.87089,83.8077226 394.988297,83.8077226 Z M326.279694,86.1555562 L326.279694,186.612022 C324.834873,186.869009 323.234695,187.061911 321.468156,187.193964 C319.701617,187.322134 318.094318,187.390102 316.656618,187.390102 C315.347735,187.390102 313.808405,187.322134 312.045103,187.193964 C310.275327,187.061911 308.671265,186.869009 307.233565,186.612022 L307.233565,101.431687 L294.470982,101.431687 C294.210112,100.38691 294.013326,99.1796566 293.884509,97.8099252 C293.751808,96.4401938 293.687724,95.1008864 293.687724,93.7952398 C293.687724,92.493477 293.751808,91.1509331 293.884509,89.7812016 C294.013326,88.4114702 294.210112,87.2042164 294.470982,86.1555562 L326.279694,86.1555562 Z M417.957191,126.693393 C417.957191,123.03797 417.465227,119.547615 416.485183,116.213264 C415.501902,112.885386 414.060965,109.983446 412.165609,107.501617 C410.263133,105.022377 407.846036,103.03057 404.89943,101.532022 C401.956061,100.030884 398.453406,99.2767548 394.39794,99.2767548 C386.413234,99.2767548 380.29605,101.694499 376.040561,106.524162 C371.788956,111.353177 369.20485,118.076901 368.286301,126.693393 L417.957191,126.693393 Z M466.849354,85.3755343 C468.287054,85.3755343 469.724754,85.443503 471.168927,85.5716725 C472.606627,85.7037261 473.915511,85.8998643 475.095577,86.1568508 C475.485264,88.1149971 475.878835,90.699103 476.271759,93.8916906 C476.662094,97.0939881 476.862116,99.7997902 476.862116,102.021396 C479.6087,97.5846575 483.243408,93.729213 487.75653,90.46542 C492.27289,87.205511 498.060588,85.5716725 505.130629,85.5716725 C506.174757,85.5716725 507.256431,85.6020966 508.368529,85.6700654 C509.47739,85.7373867 510.433483,85.8357796 511.216741,85.9607125 C511.474375,87.1375423 511.674397,88.3823407 511.803214,89.6841035 C511.935915,90.9897501 512,92.3594816 512,93.7965344 C512,95.3624041 511.901607,96.9962426 511.708706,98.6902819 C511.51192,100.388205 511.281474,102.021396 511.019956,103.584029 C509.969354,103.327043 508.890917,103.194989 507.778819,103.194989 L507.778819,103.194989 L505.130629,103.194989 C501.59755,103.194989 498.226949,103.685659 495.019473,104.663114 C491.808113,105.643805 488.932713,107.371505 486.379678,109.850745 C483.829881,112.333221 481.799234,115.72842 480.296802,120.03699 C478.791133,124.342322 478.038299,129.891806 478.038299,136.676378 L478.038299,136.676378 L478.038299,186.610081 C476.597362,186.867067 474.993948,187.063205 473.227408,187.195259 C471.464106,187.324076 469.856807,187.391397 468.422344,187.391397 C466.97817,187.391397 465.377345,187.324076 463.610806,187.195259 C461.84103,187.063205 460.172884,186.867067 458.60313,186.610081 L458.60313,186.610081 L458.60313,86.1568508 C460.04083,85.8998643 461.417035,85.7037261 462.725918,85.5716725 C464.031565,85.443503 465.408417,85.3755343 466.849354,85.3755343 Z M312.690482,-0.000183105 C314.531463,0.00319881112 316.34202,0.15876727 318.102086,0.452994128 L318.102086,0.452994128 L318.102086,19.4255547 L331.552771,6.00949485 C333.038373,7.06463471 334.428171,8.23816312 335.713104,9.51992363 C336.998684,10.8016841 338.17875,12.1916767 339.236473,13.6729416 L339.236473,13.6729416 L325.78514,27.088995 L344.807318,27.088995 C345.102496,28.8442061 345.258501,30.6434351 345.258501,32.4831864 L345.258501,32.4831864 L345.258501,32.5271395 C345.258501,34.3668908 345.102496,36.1694858 344.807318,37.924697 L344.807318,37.924697 L325.781904,37.924697 L339.236473,51.3373843 C338.17875,52.8186492 336.998684,54.2086418 335.716988,55.4904023 L335.716988,55.4904023 C334.428171,56.7721628 333.038373,57.9490573 331.556655,59.0008246 L331.556655,59.0008246 L318.102086,45.5847065 L318.102086,64.5572994 C316.345257,64.8515716 314.5347,65.0069286 312.693718,65.0108126 L312.693718,65.0108126 L312.646464,65.0108126 C310.804835,65.0069286 309.001399,64.8515716 307.241333,64.5572994 L307.241333,64.5572994 L307.241333,45.5847065 L293.790648,59.0008246 C290.820091,56.8938591 288.223039,54.2999788 286.106946,51.3373843 L286.106946,51.3373843 L299.558279,37.924697 L280.536101,37.924697 C280.237686,36.166055 280.081682,34.3567278 280.081682,32.5169766 L280.081682,32.5169766 L280.081682,32.4933493 C280.081682,31.9749544 280.117627,31.3206637 280.169298,30.6479245 L280.205854,30.1979875 C280.340399,28.6226639 280.536101,27.088995 280.536101,27.088995 L280.536101,27.088995 L299.558279,27.088995 L286.106946,13.6729416 C287.161432,12.1916767 288.338262,10.8050502 289.623194,9.5267205 L289.623194,9.5267205 C290.912011,8.23816312 292.305046,7.06463471 293.790648,6.00949485 L293.790648,6.00949485 L307.241333,19.4255547 L307.241333,0.452994128 C309.001399,0.15876727 310.808719,0.00319881112 312.652937,-0.000183105 L312.652937,-0.000183105 Z M312.687245,24.3800856 L312.656174,24.3800856 C310.235193,24.3800856 307.916489,24.8231122 305.773208,25.6279913 C304.969883,27.7620147 304.525173,30.0752167 304.521937,32.4899185 L304.521937,32.5203426 C304.525173,34.9350445 304.969883,37.2483112 305.776445,39.3822699 C307.916489,40.1872137 310.235193,40.6302403 312.656174,40.6302403 L312.687245,40.6302403 C315.108226,40.6302403 317.42693,40.1872137 319.566974,39.3822699 C320.373536,37.2449451 320.818245,34.9350445 320.818245,32.5203426 L320.818245,32.4899185 C320.818245,30.0752167 320.373536,27.7620147 319.566974,25.6279913 C317.42693,24.8231122 315.108226,24.3800856 312.687245,24.3800856 Z" fill="#FF4A00"></path>
    </g>
</svg>

<svg xmlns="http://www.w3.org/2000/svg" viewBox="0 0 512 233.602">
  <path fill="#ff4a00" d="M242.254 83.81c5.887 0 11.352.98 16.395 2.939 5.035 1.958 9.351 4.991 12.952 9.1 3.598 4.116 6.412 9.338 8.443 15.666 2.028 6.337 3.041 13.804 3.041 22.421 0 17.231-4.679 30.712-14.034 40.435-9.361 9.726-22.61 14.59-39.756 14.59-2.879 0-5.822-.196-8.833-.589-3.014-.392-5.628-.916-7.853-1.566v46.015c-1.57.257-3.238.453-5.005.585a67.248 67.248 0 0 1-4.811.196 67.09 67.09 0 0 1-4.808-.196 47.68 47.68 0 0 1-4.808-.585V86.157a41.289 41.289 0 0 1 4.022-.585 45.221 45.221 0 0 1 4.22-.196c1.307 0 2.683.067 4.124.196 1.437.132 2.814.328 4.123.585.129.267.295 1.078.488 2.451.197 1.37.394 2.838.59 4.404.197 1.566.393 3.071.59 4.505.197 1.437.292 2.35.292 2.743 1.31-2.09 2.879-4.113 4.713-6.071 1.83-1.958 4.028-3.723 6.578-5.286 2.55-1.57 5.429-2.807 8.64-3.72 3.2-.914 6.767-1.373 10.697-1.373zm-110.33 0c13.086 0 23.034 2.973 29.839 8.908 6.805 5.942 10.21 15.439 10.21 28.49v62.856c-4.58 1.045-10.142 2.12-16.686 3.23a120.08 120.08 0 0 1-20.026 1.663c-6.415 0-12.203-.585-17.374-1.762-5.17-1.176-9.555-3.063-13.152-5.681-3.601-2.604-6.382-5.939-8.345-9.984-1.963-4.044-2.943-8.938-2.943-14.687 0-5.608 1.142-10.538 3.434-14.783a30.875 30.875 0 0 1 9.325-10.572c3.927-2.803 8.443-4.897 13.546-6.263 5.107-1.373 10.471-2.06 16.1-2.06 4.187 0 7.622.102 10.303.295 2.683.2 4.94.426 6.775.686v-3.72c0-7.704-1.963-13.054-5.889-16.057-3.927-3-9.62-4.502-17.08-4.502-4.584 0-8.866.362-12.857 1.076a98.6 98.6 0 0 0-11.681 2.837c-2.49-4.308-3.73-9.459-3.73-15.469 4.445-1.433 9.352-2.543 14.723-3.328 5.364-.784 10.532-1.173 15.509-1.173zm-50.059 2.346.98 2.55-53.397 82.434H79.51c.39 2.614.59 5.286.59 8.025 0 2.618-.2 5.094-.59 7.447H.983L0 183.87l53.007-82.242H6.283c-.393-2.35-.59-4.958-.59-7.833 0-2.739.197-5.289.59-7.64zm55.95 52.086c-8.118 0-14.303 1.505-18.551 4.505-4.259 3.006-6.381 7.575-6.381 13.707 0 3.916.715 6.987 2.16 9.202 1.437 2.222 3.238 3.916 5.398 5.093 2.16 1.174 4.546 1.89 7.164 2.154a74.43 74.43 0 0 0 7.46.393c3.01 0 6.12-.162 9.324-.494 3.208-.325 6.052-.811 8.541-1.465V139.42c-1.963-.26-4.448-.518-7.46-.781-3.01-.26-5.563-.396-7.655-.396zm100.12-37.593a25.64 25.64 0 0 0-9.423 1.765c-3.014 1.17-5.693 2.932-8.05 5.282-2.356 2.35-4.251 5.324-5.69 8.912-1.444 3.595-2.163 7.863-2.163 12.827v40.726a38.31 38.31 0 0 0 7.656 1.958c2.618.389 6.02.588 10.21.588 4.713 0 9.03-.75 12.956-2.253 3.927-1.494 7.297-3.817 10.108-6.952 2.814-3.132 5.038-7.079 6.676-11.848 1.634-4.761 2.455-10.405 2.455-16.933 0-10.443-1.933-18.732-5.792-24.87-3.861-6.132-10.179-9.202-18.943-9.202zm157.053-16.841c6.934 0 13.02 1.177 18.256 3.527 5.235 2.35 9.62 5.58 13.156 9.692 3.53 4.113 6.212 9.007 8.046 14.685 1.831 5.678 2.75 11.843 2.75 18.502 0 1.83-.068 3.754-.2 5.777a200.97 200.97 0 0 1-.39 5.188H368.09c.264 10.967 3.109 18.996 8.54 24.086 5.433 5.09 13.448 7.64 24.05 7.64 9.295 0 18.125-1.634 26.503-4.897 1.048 1.958 1.896 4.339 2.553 7.145a46.477 46.477 0 0 1 1.177 8.324c-4.32 1.829-9.067 3.195-14.231 4.112-5.174.91-10.898 1.37-17.177 1.37-9.166 0-17.018-1.272-23.559-3.819-6.544-2.546-11.946-6.134-16.198-10.768-4.251-4.633-7.361-10.118-9.325-16.45-1.962-6.33-2.945-13.28-2.945-20.856 0-7.437.948-14.386 2.848-20.853 1.895-6.46 4.81-12.07 8.734-16.838 3.927-4.762 8.867-8.546 14.821-11.357 5.954-2.807 12.99-4.21 21.107-4.21zm-68.708 2.348v100.456c-1.445.257-3.045.45-4.812.582a67.249 67.249 0 0 1-4.811.196c-1.31 0-2.849-.068-4.612-.196a47.687 47.687 0 0 1-4.811-.582v-85.18H294.47c-.26-1.045-.458-2.252-.586-3.622a41.635 41.635 0 0 1-.197-4.015c0-1.301.064-2.644.197-4.014.128-1.37.325-2.577.586-3.625zm91.677 40.538c0-3.656-.492-7.146-1.472-10.48-.983-3.328-2.424-6.23-4.32-8.712-1.902-2.48-4.319-4.471-7.266-5.97-2.943-1.5-6.446-2.255-10.501-2.255-7.985 0-14.102 2.418-18.357 7.247-4.252 4.83-6.836 11.553-7.755 20.17zm48.892-41.318c1.438 0 2.876.068 4.32.196 1.438.132 2.747.328 3.927.585.39 1.958.783 4.542 1.176 7.735.39 3.202.59 5.908.59 8.13 2.747-4.437 6.381-8.293 10.895-11.556 4.516-3.26 10.304-4.894 17.374-4.894 1.044 0 2.125.03 3.238.098 1.108.068 2.064.166 2.848.29.257 1.178.457 2.423.586 3.724.133 1.306.197 2.676.197 4.113 0 1.566-.098 3.2-.291 4.893a98.13 98.13 0 0 1-.689 4.894 13.581 13.581 0 0 0-3.241-.389h-2.648c-3.533 0-6.904.49-10.112 1.468-3.21.981-6.086 2.709-8.64 5.188-2.55 2.482-4.58 5.878-6.082 10.186-1.506 4.306-2.259 9.855-2.259 16.64v49.933c-1.44.257-3.044.453-4.81.585a66.7 66.7 0 0 1-4.806.197c-1.444 0-3.045-.068-4.811-.197a57.506 57.506 0 0 1-5.008-.585V86.157a54.72 54.72 0 0 1 4.123-.585 42.25 42.25 0 0 1 4.123-.196zM312.69 0c1.841.003 3.652.159 5.412.453v18.973l13.45-13.416a32.697 32.697 0 0 1 7.684 7.663l-13.45 13.416h19.021c.295 1.755.451 3.555.451 5.394v.044c0 1.84-.155 3.643-.45 5.398h-19.026l13.454 13.413a33 33 0 0 1-3.519 4.153 32.96 32.96 0 0 1-4.16 3.51l-13.455-13.416v18.972a33.18 33.18 0 0 1-5.408.454h-.048a33.166 33.166 0 0 1-5.405-.454V45.585L293.791 59a32.69 32.69 0 0 1-7.684-7.663l13.451-13.413h-19.022a32.33 32.33 0 0 1-.454-5.408v-.023c0-.519.036-1.173.087-1.846l.037-.45c.134-1.575.33-3.109.33-3.109h19.022l-13.451-13.416a32.146 32.146 0 0 1 3.516-4.146 32.527 32.527 0 0 1 4.168-3.517l13.45 13.416V.453c1.76-.294 3.568-.45 5.412-.453zm-.003 24.38h-.03c-2.422 0-4.74.443-6.884 1.248a19.518 19.518 0 0 0-1.25 6.862v.03a19.441 19.441 0 0 0 1.254 6.862 19.504 19.504 0 0 0 6.88 1.248h.03c2.421 0 4.74-.443 6.88-1.248a19.386 19.386 0 0 0 1.251-6.861v-.03c0-2.416-.444-4.729-1.25-6.863a19.506 19.506 0 0 0-6.88-1.248z"/>
</svg>
